04_CULORI SI IMAGINI/tema-04/img/contact.svg

<?xml version="1.0" encoding="UTF-8" standalone="no"?>
<svg
   xmlns:dc="http://purl.org/dc/elements/1.1/"
   xmlns:cc="http://creativecommons.org/ns#"
   xmlns:rdf="http://www.w3.org/1999/02/22-rdf-syntax-ns#"
   xmlns:svg="http://www.w3.org/2000/svg"
   xmlns="http://www.w3.org/2000/svg"
   xmlns:sodipodi="http://sodipodi.sourceforge.net/DTD/sodipodi-0.dtd"
   xmlns:inkscape="http://www.inkscape.org/namespaces/inkscape"
   enable-background="new 0 0 512 512"
   id="Layer_1"
   version="1.1"
   viewBox="0 0 37 25.520216"
   xml:space="preserve"
   inkscape:version="0.91 r13725"
   sodipodi:docname="contact.svg"
   width="37"
   height="25.520216"><metadata
     id="metadata17"><rdf:RDF><cc:Work
         rdf:about=""><dc:format>image/svg+xml</dc:format><dc:type
           rdf:resource="http://purl.org/dc/dcmitype/StillImage" /><dc:title></dc:title></cc:Work></rdf:RDF></metadata><defs
     id="defs15" /><sodipodi:namedview
     pagecolor="#ffffff"
     bordercolor="#666666"
     borderopacity="1"
     objecttolerance="10"
     gridtolerance="10"
     guidetolerance="10"
     inkscape:pageopacity="0"
     inkscape:pageshadow="2"
     inkscape:window-width="1680"
     inkscape:window-height="998"
     id="namedview13"
     showgrid="false"
     fit-margin-top="2"
     fit-margin-right="2"
     fit-margin-left="3"
     fit-margin-bottom="2"
     inkscape:zoom="0.74879518"
     inkscape:cx="-511.93901"
     inkscape:cy="-225.28933"
     inkscape:window-x="0"
     inkscape:window-y="0"
     inkscape:window-maximized="1"
     inkscape:current-layer="Layer_1" /><g
     id="g3"
     transform="matrix(0.06247714,0,0,0.06247714,3.0030892,-3.2324951)"><path
       d="m 501.5,428.2 -491,0 C 4.7,428.2 0,423.5 0,417.7 L 0,94.3 C 0,88.5 4.7,83.8 10.5,83.8 l 490.9,0 c 5.8,0 10.5,4.7 10.5,10.5 l 0,323.3 c 0.1,5.9 -4.6,10.6 -10.4,10.6 z m -480.4,-21.1 469.8,0 0,-302.2 -469.8,0 0,302.2 z"
       id="path5"
       inkscape:connector-curvature="0"
       style="fill:#6a6e7c" /><path
       d="m 256,266.5 c -2,0 -4,-0.6 -5.8,-1.7 L 4.7,103.1 c -4.9,-3.2 -6.2,-9.7 -3,-14.6 3.2,-4.9 9.7,-6.2 14.6,-3 L 256,243.4 495.7,85.5 c 4.9,-3.2 11.4,-1.9 14.6,3 3.2,4.9 1.9,11.4 -3,14.6 L 261.8,264.8 c -1.8,1.2 -3.8,1.7 -5.8,1.7 z"
       id="path7"
       inkscape:connector-curvature="0"
       style="fill:#6a6e7c" /><path
       d="m 10.6,428.2 c -2.9,0 -5.9,-1.2 -8,-3.6 -3.8,-4.4 -3.4,-11.1 1,-14.9 L 215.1,225.6 c 4.4,-3.8 11.1,-3.4 14.9,1 3.8,4.4 3.4,11.1 -1,14.9 L 17.5,425.6 c -2,1.8 -4.5,2.6 -6.9,2.6 z"
       id="path9"
       inkscape:connector-curvature="0"
       style="fill:#6a6e7c" /><path
       d="m 501.4,428.2 c -2.5,0 -4.9,-0.9 -6.9,-2.6 l -211.4,-184 c -4.4,-3.8 -4.9,-10.5 -1,-14.9 3.8,-4.4 10.5,-4.9 14.9,-1 l 211.5,184.1 c 4.4,3.8 4.9,10.5 1,14.9 -2.2,2.3 -5.1,3.5 -8.1,3.5 z"
       id="path11"
       inkscape:connector-curvature="0"
       style="fill:#6a6e7c" /></g></svg>

<?xml version="1.0" ?><!DOCTYPE svg  PUBLIC '-//W3C//DTD SVG 1.1//EN'  'http://www.w3.org/Graphics/SVG/1.1/DTD/svg11.dtd'><svg enable-background="new 0 0 512 512" id="Layer_1" version="1.1" viewBox="0 0 512 512" xml:space="preserve" xmlns="http://www.w3.org/2000/svg" xmlns:xlink="http://www.w3.org/1999/xlink"><g><path d="M501.5,428.2H10.5c-5.8,0-10.5-4.7-10.5-10.5V94.3c0-5.8,4.7-10.5,10.5-10.5h490.9   c5.8,0,10.5,4.7,10.5,10.5v323.3C512,423.5,507.3,428.2,501.5,428.2z M21.1,407.1h469.8V104.9H21.1V407.1z" fill="#6A6E7C"/><path d="M256,266.5c-2,0-4-0.6-5.8-1.7L4.7,103.1c-4.9-3.2-6.2-9.7-3-14.6c3.2-4.9,9.7-6.2,14.6-3L256,243.4   L495.7,85.5c4.9-3.2,11.4-1.9,14.6,3c3.2,4.9,1.9,11.4-3,14.6L261.8,264.8C260,266,258,266.5,256,266.5z" fill="#6A6E7C"/><path d="M10.6,428.2c-2.9,0-5.9-1.2-8-3.6c-3.8-4.4-3.4-11.1,1-14.9l211.5-184.1c4.4-3.8,11.1-3.4,14.9,1   c3.8,4.4,3.4,11.1-1,14.9L17.5,425.6C15.5,427.4,13,428.2,10.6,428.2z" fill="#6A6E7C"/><path d="M501.4,428.2c-2.5,0-4.9-0.9-6.9-2.6L283.1,241.6c-4.4-3.8-4.9-10.5-1-14.9c3.8-4.4,10.5-4.9,14.9-1   l211.5,184.1c4.4,3.8,4.9,10.5,1,14.9C507.3,427,504.4,428.2,501.4,428.2z" fill="#6A6E7C"/></g></svg>
